assets/images/icons/src/circle-o-notch.svg

<?xml version="1.0" encoding="utf-8"?>
<!-- Generated by IcoMoon.io -->
<!DOCTYPE svg PUBLIC "-//W3C//DTD SVG 1.1//EN" "http://www.w3.org/Graphics/SVG/1.1/DTD/svg11.dtd">
<svg version="1.1" xmlns="http://www.w3.org/2000/svg" xmlns:xlink="http://www.w3.org/1999/xlink" width="14" height="14" viewBox="0 0 14 14">
<path fill="#444444" d="M14 7q0 1.422-0.555 2.719t-1.492 2.234-2.234 1.492-2.719 0.555-2.719-0.555-2.234-1.492-1.492-2.234-0.555-2.719q0-1.734 0.789-3.238t2.16-2.477 3.051-1.215v2.031q-1.727 0.352-2.863 1.727t-1.137 3.172q0 1.016 0.398 1.941t1.066 1.594 1.594 1.066 1.941 0.398 1.941-0.398 1.594-1.066 1.066-1.594 0.398-1.941q0-1.797-1.137-3.172t-2.863-1.727v-2.031q1.68 0.242 3.051 1.215t2.16 2.477 0.789 3.238z"></path>
</svg>

<svg xmlns="http://www.w3.org/2000/svg" width="14" height="14" viewBox="0 0 14 14"><path fill="#444" d="M14 7q0 1.422-.555 2.719t-1.492 2.234-2.234 1.492T7 14t-2.719-.555-2.234-1.492T.555 9.719 0 7q0-1.734.789-3.238t2.16-2.477T6 .07v2.031q-1.727.352-2.863 1.727T2 7q0 1.016.398 1.941t1.066 1.594 1.594 1.066 1.941.398 1.941-.398 1.594-1.066T11.6 8.941 11.998 7q0-1.797-1.137-3.172T7.998 2.101V.07q1.68.242 3.051 1.215t2.16 2.477T13.998 7z"/></svg>
